Adwaita++/emblems/16/emblem-symbolic-link.svg

<svg fill="none" height="16" viewBox="0 0 16 16" width="16" xmlns="http://www.w3.org/2000/svg">
  <path d="m13.6 1h-11.2c-.7732 0-1.4.6268-1.4 1.4v11.2c0 .7732.6268 1.4 1.4 1.4h11.2c.7732 0 1.4-.6268 1.4-1.4v-11.2c0-.7732-.6268-1.4-1.4-1.4z" fill="#9a9996"/>
  <path clip-rule="evenodd" d="m8.64234 4.77588v-.80605l.80605-.00015c.24943 0 .44519.07279.60451.2267l2.9471 2.99754-2.9471 2.99748c-.15932.1539-.35508.2267-.60451.2267h-.80605v-.80603c0-.20707.10465-.42597.25189-.57935l1.03266-1.03265h-4.10572c-.6773 0-1.20907.53177-1.20907 1.20907s.53177 1.20906 1.20907 1.20906h.40302v1.6121h-.40302c-1.54858 0-2.82117-1.2726-2.82117-2.82116 0-1.54858 1.27259-2.82117 2.82117-2.82117h4.10581l-1.03275-1.03275c-.14724-.15338-.25189-.37228-.25189-.57934z" fill="#f6f5f4" fill-rule="evenodd"/>
</svg>

<svg xmlns="http://www.w3.org/2000/svg" fill="none" width="16" height="16" viewBox="0 0 16 16">
 <path fill="url(#paint0_linear)" d="M13.6 1H2.4C1.6268 1 1 1.6268 1 2.4V13.6C1 14.3732 1.6268 15 2.4 15H13.6C14.3732 15 15 14.3732 15 13.6V2.4C15 1.6268 14.3732 1 13.6 1Z"/>
 <path fill="url(#paint1_linear)" fill-rule="evenodd" d="M8.64234 4.77588V3.96983L9.44839 3.96968C9.69782 3.96968 9.89358 4.04247 10.0529 4.19638L13 7.19392L10.0529 10.1914C9.89358 10.3453 9.69782 10.4181 9.44839 10.4181H8.64234V9.61207C8.64234 9.405 8.74699 9.1861 8.89423 9.03272L9.92689 8.00007H5.82117C5.14387 8.00007 4.6121 8.53184 4.6121 9.20914C4.6121 9.88644 5.14387 10.4182 5.82117 10.4182H6.22419V12.0303H5.82117C4.27259 12.0303 3 10.7577 3 9.20914C3 7.66056 4.27259 6.38797 5.82117 6.38797H9.92698L8.89423 5.35522C8.74699 5.20184 8.64234 4.98294 8.64234 4.77588Z" clip-rule="evenodd"/>
 <defs>
  <linearGradient id="paint0_linear" x1="1" x2="15" y1="8" y2="8" gradientUnits="userSpaceOnUse">
   <stop stop-color="#9A9996"/>
  </linearGradient>
  <linearGradient id="paint1_linear" x1="3" x2="13" y1="8" y2="8" gradientUnits="userSpaceOnUse">
   <stop stop-color="#F6F5F4"/>
  </linearGradient>
 </defs>
</svg>
